app/dist/common/images/camtek.svg

<svg fill="none" height="18" width="18" xmlns="http://www.w3.org/2000/svg" xmlns:xlink="http://www.w3.org/1999/xlink"><linearGradient id="a" gradientUnits="userSpaceOnUse" x1="9.079" x2="8.464" y1="11.206" y2="13.992"><stop offset="0" stop-color="#004065"/><stop offset="1" stop-color="#003154"/></linearGradient><linearGradient id="b" gradientUnits="userSpaceOnUse" x1="8.789" x2="8.915" y1="4" y2="7.438"><stop offset="0" stop-color="#1f827a"/><stop offset="1" stop-color="#027290"/></linearGradient><linearGradient id="c" gradientUnits="userSpaceOnUse" x1="8.806" x2="4.358" y1="7.125" y2="8.475"><stop offset="0" stop-color="#7ca580"/><stop offset="1" stop-color="#3c775c"/></linearGradient><linearGradient id="d" gradientUnits="userSpaceOnUse" x1="8.806" x2="4.358" y1="10.875" y2="9.525"><stop offset="0" stop-color="#4da582"/><stop offset="1" stop-color="#85bd7f"/></linearGradient><linearGradient id="e" gradientUnits="userSpaceOnUse" x1="14" x2="9.569" y1="9" y2="9"><stop offset="0" stop-color="#003f65"/><stop offset="1" stop-color="#005981"/></linearGradient><path d="m0 0h18v18h-18z" fill="#f0f3fa"/><path clip-rule="evenodd" d="m14 9c0 2.761-2.189 5-4.889 5-2.6 0-4.049-2.071-5.423-4.035-.23-.328-.458-.653-.688-.965.23-.312.458-.637.688-.965 1.374-1.965 2.824-4.035 5.422-4.035 2.701 0 4.89 2.239 4.89 5zm-4.583 0c0-.598-.13-1.196-.399-1.735-.715.889-1.13 1.735-1.13 1.735s.415.846 1.13 1.735a3.889 3.889 0 0 0 .399-1.735z" fill="url(#a)" fill-rule="evenodd"/><path d="m13.757 7.438h-4.658a3.629 3.629 0 0 0 -.08-.173 9.619 9.619 0 0 0 -.136.173h-4.775c1.26-1.765 2.667-3.438 5.003-3.438 2.167 0 4.004 1.441 4.646 3.438z" fill="url(#b)"/><path d="m9.018 7.265c-.697.875-1.13 1.735-1.13 1.735h-4.888c.217-.293.433-.6.653-.91.71-1.006 1.423-2.056 2.323-2.84 1.701.373 2.613 1.206 3.042 2.015z" fill="url(#c)"/><path d="m9.018 10.735c-.697-.875-1.13-1.735-1.13-1.735h-4.888c.217.293.433.6.653.91.71 1.006 1.423 2.056 2.323 2.84 1.701-.373 2.613-1.206 3.042-2.015z" fill="url(#d)"/><path d="m14 9c0-1.493-.64-2.834-1.655-3.75-1.377 0-2.536 1.033-3.327 2.015.27.539.399 1.137.399 1.735s-.13 1.196-.399 1.735c.791.982 1.95 2.015 3.327 2.015a5.037 5.037 0 0 0 1.655-3.75z" fill="url(#e)"/></svg>

<!-- by TradingView --><svg width="18" height="18" fill="none" xmlns="http://www.w3.org/2000/svg"><path fill="#F0F3FA" d="M0 0h18v18H0z"/><path fill-rule="evenodd" clip-rule="evenodd" d="M14 9c0 2.761-2.189 5-4.889 5-2.6 0-4.049-2.071-5.423-4.035C3.458 9.637 3.23 9.312 3 9c.23-.312.458-.637.688-.965C5.062 6.07 6.512 4 9.11 4 11.811 4 14 6.239 14 9zM9.417 9c0-.598-.13-1.196-.399-1.735C8.303 8.154 7.888 9 7.888 9s.415.846 1.13 1.735A3.889 3.889 0 009.417 9z" fill="url(#paint0_linear_3186)"/><path d="M13.757 7.438H9.099a3.629 3.629 0 00-.08-.173 9.619 9.619 0 00-.136.173H4.108C5.368 5.673 6.775 4 9.111 4c2.167 0 4.004 1.441 4.646 3.438z" fill="url(#paint1_linear_3186)"/><path d="M9.018 7.265C8.321 8.14 7.888 9 7.888 9H3c.217-.293.433-.6.653-.91.71-1.006 1.423-2.056 2.323-2.84 1.701.373 2.613 1.206 3.042 2.015z" fill="url(#paint2_linear_3186)"/><path d="M9.018 10.735C8.321 9.86 7.888 9 7.888 9H3c.217.293.433.6.653.91.71 1.006 1.423 2.056 2.323 2.84 1.701-.373 2.613-1.206 3.042-2.015z" fill="url(#paint3_linear_3186)"/><path d="M14 9c0-1.493-.64-2.834-1.655-3.75-1.377 0-2.536 1.033-3.327 2.015.27.539.399 1.137.399 1.735 0 .598-.13 1.196-.399 1.735.791.982 1.95 2.015 3.327 2.015A5.037 5.037 0 0014 9z" fill="url(#paint4_linear_3186)"/><defs><linearGradient id="paint0_linear_3186" x1="9.079" y1="11.206" x2="8.464" y2="13.992" gradientUnits="userSpaceOnUse"><stop stop-color="#004065"/><stop offset="1" stop-color="#003154"/></linearGradient><linearGradient id="paint1_linear_3186" x1="8.789" y1="4" x2="8.915" y2="7.438" gradientUnits="userSpaceOnUse"><stop stop-color="#1F827A"/><stop offset="1" stop-color="#027290"/></linearGradient><linearGradient id="paint2_linear_3186" x1="8.806" y1="7.125" x2="4.358" y2="8.475" gradientUnits="userSpaceOnUse"><stop stop-color="#7CA580"/><stop offset="1" stop-color="#3C775C"/></linearGradient><linearGradient id="paint3_linear_3186" x1="8.806" y1="10.875" x2="4.358" y2="9.525" gradientUnits="userSpaceOnUse"><stop stop-color="#4DA582"/><stop offset="1" stop-color="#85BD7F"/></linearGradient><linearGradient id="paint4_linear_3186" x1="14" y1="9" x2="9.569" y2="9" gradientUnits="userSpaceOnUse"><stop stop-color="#003F65"/><stop offset="1" stop-color="#005981"/></linearGradient></defs></svg>
